X:1
T:The Trials of Life
R:Slow Strathspey
C:Denny Sayre
S:Denny Sayre <dennys@citynet.net> scots-l 2001-10-14
M:4/4
L:1/8
K:Amin
G,|A,>D E>A A<A A,>A|A<E D>G B,3 C/B,/|A,>B, C>G G<G A,>G,|G,<A, E<A A,3 G,|
A,>D E>A A<A A,>A|A<E D>G, B,3 C/B,/|A,>B, C>G G<A, C>G,|G,<A, E<A A,3 A|
ca a<e d>c|a<e g>g g3 e|e<e a>e d>c G>c|e<a d<g A3a|
a<a a>a bb|a<e g>g B3 c/B/|A>B c>g g<A c>G|G<A e<a A3||
